X:1
T:Honey Out of the Rock
T:Lanta Wilson Smith, 1892
T:Honey Out of the Rock
T:Public Domain
T:Public Domain
C:Lanta Wilson Smith, 1892
Z:Public Domain
%%score ( 1 2 ) 3
L:1/8
M:4/4
K:Bb
V:1 treble 
V:2 treble 
V:3 bass 
V:1
 [DF]2 [Fd]>[Fc] [FB]2 [EA][EG] | [DF]2 D>[EG] [DF]2 [B,D]2 | [EG]2 [EG]>[EG] F2 [B,D][DF] | %3
w: 1.~Out in the de- sert of|sin Je- sus found me,|in the depths of a sin-|
w: 2.~Now from the rich- es of|grace He’s be- stow- ing|der- ful bless- ings my joy|
w: 3.~No one can tell all the|joy of re- demp- tion;|one de- scribe half the bless-|
w: 4.~Come, sin- ner, come, there’s a|wide in- vi- ta- tion;|with your sin- bur- dened, hun-|
 [DB]2 [DA]>[DB] [Fc]4 | [Fd]2 [Fd]>[Fc] [FB]2 [DF]>[DF] | [EG]2 [EG]>[E^F] [EG]2 [GB]2 | %6
w: des- pair; Gent- ly|thro’ paths of for- give- ness|He led me, Spread- ing|
w: com- plete; Feed- ing|my soul ev- ery day with|His boun- ty— Hon- ey|
w: in store; No one|can mea- sure the bliss of|pos- sess- ing Know- ledge|
w: ing heart; Think of|the joy that is prom- ised|the faith- ful— In all|
 (dc) [GB]>[EG] [DF]2 [Ge]>[Ge] | [Fd]2 [Ec]>[Ec] [DB]2 ||"^Refrain" [Fd]2 | %9
w: a * feast in the wil- der-|rare. * * *||
w: and * milk, and the best of|wheat. With hon- ey|from|
w: of * par- don, and peace ev-|more. * * *||
w: this * bless- ed- ness you have|part. * * *||
 [Ge][EG] [EG]>[FA] [GB]2 [FA][EG] | [DF]2 [B,D]>[DF] [DB]2 [EA]2 | [EA][EA] [EA]>[DB] [Ec]4 | %12
w: |||
w: the rock He is feed- ing His|peo- ple, Hon- ey from|the rock, hon- ey from|
w: |||
w: |||
 [DB][DB] [DB]>[Ec] [Fd]2 [Fd]2 | [Ge][EG] [EG]>[EG] ([EG][GB])[FA][EG] | %14
w: ||
w: the rock; With hon- ey from|the rock He is feed- * ing His|
w: ||
w: ||
 [DF]2 [B,D]>[CE] [EG]2 [DF]2 | [EG]2 [Ge]>[Ge] [Fd]2 [Ec]2 | [DB]6 |] %17
w: |||
w: peo- ple, Sweet are the|gifts of God. * *||
w: |||
w: |||
V:2
 x8 | x2 D3/2 x9/2 | x4 F2 x2 | x8 | x8 | x8 | F2 x6 | x6 || x2 | x8 | x8 | x8 | x8 | x8 | x8 | %15
w: |Lost|ner’s||||ness|||||||||
w: |Won-|to||||the|||||||||
w: |No|ings||||er-|||||||||
w: |Come|ger-||||a|||||||||
 x8 | x6 |] %17
w: ||
w: ||
w: ||
w: ||
V:3
 [B,,B,]2 [B,,B,]>[C,B,] [D,B,]2 [E,B,][E,B,] | [B,,B,]2 [B,,B,]>[B,,B,] [B,,B,]2 [B,,B,]2 | %2
 [E,B,]2 [E,B,]>[E,B,] [D,B,]2 [B,,B,][B,,B,] | [G,B,]2 [G,B,]>[G,B,] [F,A,]4 | %4
 [B,,B,]2 [B,,B,]>[C,B,] [D,B,]2 [B,,B,]>[B,,B,] | [E,B,]2 [E,B,]>[E,B,] [E,B,]2 [E,B,]2 | %6
 [D,B,]2 [E,B,]>[E,B,] [B,,B,]2 [E,B,]>[E,B,] | [F,B,]2 [F,A,]>[F,A,] [B,,B,]2 || [B,,B,]2 | %9
 [E,B,][E,B,] [E,B,]>[E,C] [E,B,]2 [E,B,][E,B,] | [B,,B,]2 [B,,B,]>[B,,B,] [B,,B,]2 [F,C]2 | %11
 [F,C][F,C] [F,C]>[F,B,] [F,A,]4 | [B,,B,][B,,B,] [B,,B,]>[B,,B,] [B,,B,]2 [B,,B,]2 | %13
 [E,B,][E,B,] [E,B,]>[E,B,] [E,B,]2 [E,B,][E,B,] | [B,,B,]2 [B,,F,]>[B,,F,] [B,,B,]2 [B,,B,]2 | %15
 [E,B,]2 [C,B,]>[C,B,] [F,B,]2 [F,A,]2 | [B,,B,]6 |] %17

